dist/img/svg/services/conditioning/split.svg

<svg width="20" height="14" viewBox="0 0 20 14" fill="none" xmlns="http://www.w3.org/2000/svg">
<g clip-path="url(#clip0_167_79)">
<path d="M18.3238 8.64478H1.67636C1.4086 8.64478 1.1518 8.53546 0.962457 8.34088C0.773118 8.14629 0.666748 7.88237 0.666748 7.60718V1.70435C0.667045 1.42926 0.77351 1.16552 0.962785 0.970993C1.15206 0.77647 1.40869 0.667053 1.67636 0.666748H18.3238C18.5915 0.667053 18.8481 0.77647 19.0374 0.970993C19.2267 1.16552 19.3331 1.42926 19.3334 1.70435V7.60718C19.3334 7.88237 19.227 8.14629 19.0377 8.34088C18.8484 8.53546 18.5916 8.64478 18.3238 8.64478ZM1.67636 1.4046C1.59901 1.4046 1.52482 1.43618 1.47012 1.4924C1.41543 1.54861 1.3847 1.62485 1.3847 1.70435V7.60718C1.3847 7.68668 1.41543 7.76292 1.47012 7.81914C1.52482 7.87535 1.59901 7.90693 1.67636 7.90693H18.3238C18.4012 7.90693 18.4753 7.87535 18.53 7.81914C18.5847 7.76292 18.6155 7.68668 18.6155 7.60718V1.70435C18.6155 1.62485 18.5847 1.54861 18.53 1.4924C18.4753 1.43618 18.4012 1.4046 18.3238 1.4046H1.67636Z" fill="#78C081"/>
<path d="M14.3185 4.12543H5.68071C5.16027 4.12458 4.6614 3.91166 4.29348 3.53337C3.92556 3.15507 3.71861 2.64227 3.71802 2.10741V1.03567C3.71802 0.937829 3.75584 0.843991 3.82316 0.774804C3.89048 0.705617 3.98179 0.666748 4.07699 0.666748C4.1722 0.666748 4.2635 0.705617 4.33083 0.774804C4.39815 0.843991 4.43597 0.937829 4.43597 1.03567V2.10741C4.43632 2.44682 4.56767 2.77222 4.8012 3.01222C5.03473 3.25222 5.35135 3.38721 5.68161 3.38758H14.3194C14.6495 3.38697 14.9659 3.25187 15.1993 3.0119C15.4326 2.77192 15.5638 2.44666 15.5642 2.10741V1.03567C15.5642 0.937829 15.602 0.843991 15.6693 0.774804C15.7366 0.705617 15.8279 0.666748 15.9231 0.666748C16.0184 0.666748 16.1097 0.705617 16.177 0.774804C16.2443 0.843991 16.2821 0.937829 16.2821 1.03567V2.10741C16.2815 2.64243 16.0745 3.15537 15.7063 3.53369C15.3382 3.91201 14.8391 4.12482 14.3185 4.12543Z" fill="#78C081"/>
<path d="M14.5322 2.7652H5.46811C5.3729 2.7652 5.28159 2.72633 5.21427 2.65714C5.14695 2.58795 5.10913 2.49412 5.10913 2.39627C5.10913 2.29842 5.14695 2.20459 5.21427 2.1354C5.28159 2.06621 5.3729 2.02734 5.46811 2.02734H14.5322C14.6274 2.02734 14.7187 2.06621 14.786 2.1354C14.8534 2.20459 14.8912 2.29842 14.8912 2.39627C14.8912 2.49412 14.8534 2.58795 14.786 2.65714C14.7187 2.72633 14.6274 2.7652 14.5322 2.7652Z" fill="#78C081"/>
<path d="M15.8 8.64482C15.7048 8.64482 15.6135 8.60595 15.5462 8.53676C15.4788 8.46758 15.441 8.37374 15.441 8.27589V8.11449C15.4407 7.84887 15.3379 7.59422 15.1552 7.4064C14.9724 7.21858 14.7246 7.11293 14.4662 7.11262H5.53556C5.27711 7.11293 5.02933 7.21858 4.84657 7.4064C4.66382 7.59422 4.56102 7.84887 4.56072 8.11449V8.27589C4.56072 8.37374 4.5229 8.46758 4.45558 8.53676C4.38826 8.60595 4.29695 8.64482 4.20175 8.64482C4.10654 8.64482 4.01524 8.60595 3.94791 8.53676C3.88059 8.46758 3.84277 8.37374 3.84277 8.27589V8.11449C3.84331 7.65328 4.02183 7.21111 4.33918 6.88501C4.65653 6.5589 5.08679 6.37549 5.53556 6.375H14.4673C14.9161 6.37549 15.3464 6.55894 15.6637 6.88509C15.9811 7.21125 16.1596 7.65347 16.1601 8.11472V8.27612C16.1601 8.32465 16.1507 8.37269 16.1326 8.4175C16.1145 8.46231 16.0879 8.50301 16.0545 8.53725C16.021 8.5715 15.9813 8.59863 15.9377 8.61709C15.894 8.63555 15.8472 8.64497 15.8 8.64482Z" fill="#78C081"/>
<path d="M3.27792 13.1758C3.18271 13.1758 3.09141 13.1369 3.02409 13.0677C2.95677 12.9985 2.91895 12.9047 2.91895 12.8068C2.91895 12.709 2.95677 12.6151 3.02409 12.546C3.09141 12.4768 3.18271 12.4379 3.27792 12.4379C3.92622 12.4369 4.54769 12.1718 5.00611 11.7007C5.46453 11.2296 5.72248 10.5909 5.72343 9.92459C5.72343 9.82675 5.76125 9.73291 5.82857 9.66372C5.89589 9.59453 5.9872 9.55566 6.08241 9.55566C6.17761 9.55566 6.26892 9.59453 6.33624 9.66372C6.40356 9.73291 6.44138 9.82675 6.44138 9.92459C6.44228 11.7169 5.02276 13.1758 3.27792 13.1758Z" fill="#78C081"/>
<path d="M16.7225 13.1758C14.9777 13.1758 13.5591 11.7169 13.5591 9.92459C13.5591 9.82675 13.5969 9.73291 13.6642 9.66372C13.7315 9.59453 13.8229 9.55566 13.9181 9.55566C14.0133 9.55566 14.1046 9.59453 14.1719 9.66372C14.2392 9.73291 14.277 9.82675 14.277 9.92459C14.278 10.5909 14.5359 11.2296 14.9944 11.7007C15.4528 12.1718 16.0742 12.4369 16.7225 12.4379C16.8177 12.4379 16.9091 12.4768 16.9764 12.546C17.0437 12.6151 17.0815 12.709 17.0815 12.8068C17.0815 12.9047 17.0437 12.9985 16.9764 13.0677C16.9091 13.1369 16.8177 13.1758 16.7225 13.1758Z" fill="#78C081"/>
<path d="M10.0001 13.3335C9.90488 13.3335 9.81357 13.2946 9.74625 13.2254C9.67893 13.1562 9.64111 13.0624 9.64111 12.9646V9.76712C9.64111 9.66927 9.67893 9.57544 9.74625 9.50625C9.81357 9.43706 9.90488 9.39819 10.0001 9.39819C10.0953 9.39819 10.1866 9.43706 10.2539 9.50625C10.3212 9.57544 10.3591 9.66927 10.3591 9.76712V12.9646C10.3591 13.0624 10.3212 13.1562 10.2539 13.2254C10.1866 13.2946 10.0953 13.3335 10.0001 13.3335Z" fill="#78C081"/>
</g>
<defs>
<clipPath id="clip0_167_79">
<rect width="20" height="14" fill="white"/>
</clipPath>
</defs>
</svg>

<svg width="20" height="14" fill="none" xmlns="http://www.w3.org/2000/svg"><g clip-path="url(#clip0_167_79)" fill="#78C081"><path d="M18.324 8.645H1.676a.996.996 0 01-.714-.304 1.052 1.052 0 01-.295-.734V1.704c0-.275.107-.538.296-.733a.997.997 0 01.713-.304h16.648c.267 0 .524.11.713.304.19.195.296.458.296.733v5.903c0 .275-.106.54-.295.734a.996.996 0 01-.714.304zM1.676 1.405a.288.288 0 00-.206.087.304.304 0 00-.085.212v5.903c0 .08.03.156.085.212a.288.288 0 00.206.088h16.648a.288.288 0 00.206-.088.304.304 0 00.085-.212V1.704c0-.08-.03-.155-.085-.212a.288.288 0 00-.206-.087H1.676z"/><path d="M14.319 4.125H5.68a1.94 1.94 0 01-1.388-.592 2.05 2.05 0 01-.575-1.426V1.036c0-.098.038-.192.105-.261a.354.354 0 01.508 0 .375.375 0 01.105.26v1.072c0 .34.132.665.365.905.234.24.55.375.88.376h8.638c.33-.001.647-.136.88-.376a1.3 1.3 0 00.365-.905V1.036c0-.098.038-.192.105-.261a.354.354 0 01.508 0 .375.375 0 01.105.26v1.072c0 .535-.207 1.048-.576 1.427a1.94 1.94 0 01-1.387.591z"/><path d="M14.532 2.765H5.468a.354.354 0 01-.254-.108.374.374 0 010-.522.354.354 0 01.254-.108h9.064a.36.36 0 01.254.108.374.374 0 010 .522.354.354 0 01-.254.108zm1.268 5.88a.354.354 0 01-.254-.108.374.374 0 01-.105-.261v-.162c0-.265-.103-.52-.286-.708a.963.963 0 00-.689-.293h-8.93a.963.963 0 00-.69.293 1.017 1.017 0 00-.285.708v.162a.374.374 0 01-.105.26.354.354 0 01-.508 0 .374.374 0 01-.105-.26v-.162c0-.46.179-.903.496-1.229.318-.326.748-.51 1.197-.51h8.931c.45 0 .88.184 1.197.51.317.326.496.768.496 1.23v.161a.378.378 0 01-.105.261.36.36 0 01-.255.108zM3.278 13.176a.354.354 0 01-.254-.108.374.374 0 010-.522.354.354 0 01.254-.108 2.416 2.416 0 001.728-.737 2.55 2.55 0 00.717-1.776c0-.098.038-.192.106-.261a.354.354 0 01.507 0 .37.37 0 01.105.26c.001 1.793-1.418 3.252-3.163 3.252zm13.445 0c-1.745 0-3.164-1.46-3.164-3.251 0-.098.038-.192.105-.261a.354.354 0 01.508 0 .375.375 0 01.105.26c.001.667.259 1.306.717 1.777.459.47 1.08.736 1.729.737.095 0 .186.039.253.108a.374.374 0 010 .522.354.354 0 01-.253.108zM10 13.334a.354.354 0 01-.254-.109.374.374 0 01-.105-.26V9.767c0-.098.038-.192.105-.26a.354.354 0 01.508 0 .371.371 0 01.105.26v3.198a.374.374 0 01-.105.26.354.354 0 01-.254.109z"/></g><defs><clipPath id="clip0_167_79"><path fill="#fff" d="M0 0h20v14H0z"/></clipPath></defs></svg>
